public/img/icons/dog.svg

<svg width="24" height="24" viewBox="0 0 24 24" fill="none" xmlns="http://www.w3.org/2000/svg">
<path d="M9.5 11.5V11C9.5 10.7348 9.39464 10.4804 9.20711 10.2929C9.01957 10.1054 8.76522 10 8.5 10C8.23478 10 7.98043 10.1054 7.79289 10.2929C7.60536 10.4804 7.5 10.7348 7.5 11V11.5C7.5 11.7652 7.60536 12.0196 7.79289 12.2071C7.98043 12.3946 8.23478 12.5 8.5 12.5C8.76522 12.5 9.01957 12.3946 9.20711 12.2071C9.39464 12.0196 9.5 11.7652 9.5 11.5ZM16.5 11V11.5C16.5 11.7652 16.3946 12.0196 16.2071 12.2071C16.0196 12.3946 15.7652 12.5 15.5 12.5C15.2348 12.5 14.9804 12.3946 14.7929 12.2071C14.6054 12.0196 14.5 11.7652 14.5 11.5V11C14.5 10.7348 14.6054 10.4804 14.7929 10.2929C14.9804 10.1054 15.2348 10 15.5 10C15.7652 10 16.0196 10.1054 16.2071 10.2929C16.3946 10.4804 16.5 10.7348 16.5 11Z" fill="white"/>
<path fill-rule="evenodd" clip-rule="evenodd" d="M3.134 15.694C3.61145 16.1715 4.24787 16.4566 4.922 16.495C5.028 16.73 5.154 16.957 5.298 17.174L6.032 18.275C6.38152 18.7992 6.90045 19.1876 7.502 19.375C7.53417 20.0821 7.83778 20.7496 8.34963 21.2385C8.86148 21.7275 9.54215 22.0002 10.25 22H13.75C14.4575 22 15.1378 21.7273 15.6494 21.2386C16.161 20.7499 16.4646 20.0828 16.497 19.376C17.0985 19.1886 17.6175 18.8002 17.967 18.276L18.702 17.174C18.846 16.957 18.972 16.73 19.078 16.496C19.7521 16.4576 20.3885 16.1725 20.866 15.695L22.195 14.366C22.7104 13.8503 23 13.1511 23 12.422V8.078C23 7.349 22.71 6.65 22.195 6.134L18.987 2.927C18.6588 2.59908 18.2139 2.41487 17.75 2.41487C17.2861 2.41487 16.8412 2.59908 16.513 2.927L16.453 2.987C15.0594 2.33432 13.5389 1.9973 12 2C10.409 2 8.9 2.353 7.548 2.987L7.488 2.927C7.3255 2.76448 7.13257 2.63556 6.92024 2.5476C6.70791 2.45965 6.48033 2.41437 6.2505 2.41437C6.02067 2.41437 5.79309 2.45965 5.58076 2.5476C5.36843 2.63556 5.1755 2.76448 5.013 2.927L1.805 6.134C1.28958 6.64967 1.00002 7.34891 1 8.078V12.422C1 13.151 1.29 13.85 1.805 14.366L3.134 15.694ZM12 3.5C10.5191 3.49653 9.06045 3.86075 7.755 4.56L7.264 4.824L6.427 3.987C6.40378 3.96372 6.37619 3.94525 6.34582 3.93264C6.31544 3.92004 6.28288 3.91355 6.25 3.91355C6.21712 3.91355 6.18456 3.92004 6.15418 3.93264C6.12381 3.94525 6.09622 3.96372 6.073 3.987L2.866 7.195C2.63184 7.42922 2.5002 7.7468 2.5 8.078V12.422C2.5 12.753 2.632 13.071 2.866 13.305L4.195 14.634C4.288 14.728 4.395 14.804 4.511 14.864C4.50363 14.7558 4.49996 14.6474 4.5 14.539V8.5H6V14.539C6 15.181 6.19 15.808 6.546 16.342L7.28 17.443C7.3941 17.6143 7.54873 17.7547 7.73015 17.8519C7.91158 17.9491 8.11419 17.9999 8.32 18H10.014C10.2461 18 10.4737 17.9353 10.6711 17.8133C10.8686 17.6913 11.0282 17.5166 11.132 17.309L11.25 17.073V16H10.5V14.5H13.5V16H12.75V17.073L12.868 17.309C12.9718 17.5166 13.1314 17.6913 13.3289 17.8133C13.5263 17.9353 13.7539 18 13.986 18H15.68C15.8858 17.9999 16.0884 17.9491 16.2698 17.8519C16.4513 17.7547 16.6059 17.6143 16.72 17.443L17.454 16.342C17.81 15.8081 18 15.1807 18 14.539V8.5H19.5V14.539C19.5 14.648 19.496 14.756 19.489 14.864C19.605 14.804 19.712 14.728 19.805 14.634L21.134 13.305C21.3682 13.0708 21.4998 12.7532 21.5 12.422V8.078C21.4998 7.7468 21.3682 7.42922 21.134 7.195L17.927 3.987C17.9038 3.96372 17.8762 3.94525 17.8458 3.93264C17.8154 3.92004 17.7829 3.91355 17.75 3.91355C17.7171 3.91355 17.6846 3.92004 17.6542 3.93264C17.6238 3.94525 17.5962 3.96372 17.573 3.987L16.736 4.824L16.246 4.561C14.9403 3.86124 13.4813 3.49667 12 3.5ZM14.975 19.5H13.986C13.6149 19.5 13.2476 19.4248 12.9063 19.2791C12.565 19.1334 12.2567 18.92 12 18.652C11.7433 18.92 11.435 19.1334 11.0937 19.2791C10.7524 19.4248 10.3851 19.5 10.014 19.5H9.025C9.141 20.07 9.645 20.5 10.25 20.5H13.75C14.355 20.5 14.86 20.07 14.975 19.5Z" fill="white"/>
</svg>

<svg xmlns="http://www.w3.org/2000/svg" width="24" height="24" fill="none" viewBox="0 0 24 24"><path fill="#fff" d="M9.5 11.5V11a1 1 0 1 0-2 0v.5a1 1 0 1 0 2 0m7-.5v.5a1 1 0 0 1-2 0V11a1 1 0 0 1 2 0"/><path fill="#fff" fill-rule="evenodd" d="M3.134 15.694a2.75 2.75 0 0 0 1.788.801q.16.353.376.679l.734 1.101c.35.524.868.913 1.47 1.1A2.75 2.75 0 0 0 10.25 22h3.5a2.75 2.75 0 0 0 2.747-2.624 2.75 2.75 0 0 0 1.47-1.1l.735-1.102q.216-.326.376-.678a2.75 2.75 0 0 0 1.788-.801l1.329-1.329A2.75 2.75 0 0 0 23 12.422V8.078c0-.729-.29-1.428-.805-1.944l-3.208-3.207a1.75 1.75 0 0 0-2.474 0l-.06.06A10.5 10.5 0 0 0 12 2c-1.591 0-3.1.353-4.452.987l-.06-.06a1.75 1.75 0 0 0-2.475 0L1.805 6.134A2.75 2.75 0 0 0 1 8.078v4.344c0 .729.29 1.428.805 1.944zM12 3.5a8.95 8.95 0 0 0-4.245 1.06l-.491.264-.837-.837a.25.25 0 0 0-.354 0L2.866 7.195a1.25 1.25 0 0 0-.366.883v4.344c0 .331.132.649.366.883l1.329 1.329q.14.14.316.23a5 5 0 0 1-.011-.325V8.5H6v6.039c0 .642.19 1.269.546 1.803l.734 1.101A1.25 1.25 0 0 0 8.32 18h1.694a1.25 1.25 0 0 0 1.118-.691l.118-.236V16h-.75v-1.5h3V16h-.75v1.073l.118.236a1.25 1.25 0 0 0 1.118.691h1.694a1.25 1.25 0 0 0 1.04-.557l.734-1.101A3.25 3.25 0 0 0 18 14.539V8.5h1.5v6.039q0 .163-.011.325.175-.09.316-.23l1.329-1.329a1.25 1.25 0 0 0 .366-.883V8.078a1.25 1.25 0 0 0-.366-.883l-3.207-3.208a.25.25 0 0 0-.354 0l-.837.837-.49-.263A8.95 8.95 0 0 0 12 3.5m2.975 16h-.989A2.75 2.75 0 0 1 12 18.652a2.75 2.75 0 0 1-1.986.848h-.989c.116.57.62 1 1.225 1h3.5c.605 0 1.11-.43 1.225-1" clip-rule="evenodd"/></svg>
